X:1

T:Bath Road Hornpipe

M:2/4

L:1/8

R:Hornpipe

S:O’Neill – Music of Ireland (1903), No. 1682

Z:AK/Fiddler’s Companion

K:G

G/A/B/c/ de/f/|gd/c/ (B/d/B/G|F/G/A/B/ c/e/d/c/|BA/G/ (3FAFD|

G/A/B/c/ de/f/|gd/c/ (3BdBG|F/G/A/B/ c/e/d/c/|B/G/A/F/ G:|

|:dd/d/ dd|d/e/f/g/ a/f/d/B/|cc/c/ cc|c/B/A/G/ F/A/F/D/|

G/A/B/c/ de/f/|gd/c/ (3B/d/B/G|F/G/A/B/ c/e/d/c/|B/G/A/F/ G:|

           

BATH TOY, THE. English, Jig. England, North‑West. B Flat Major. Standard tuning. AABBCC. Knowles (Northern Frisk), 1988; No. 52.

           

BATH WALTZ, THE. English, Waltz (3/4 or 3/8 time). England; Shropshire, Sussex, Lincolnshire, Northamptonshire. G Major (Ashman, Raven): A Major (Sumner): E Flat Major: B Flat Major. Standard tuning. AABBCC. This English waltz appears to have been known throughout the country. It appears in the 1823-26 collection of papermaker and musician Joshua Gibbons (Lincolnshire, 1778-1871), where it is given in the key of ‘C’ major. It is also printed in the Welch MSS (Sussex) and John Clare's MSS (Northamptonshire). See note for “Bath Carnival” for more on Bath. Sources for notated versions: a c. 1837-1840 MS by Shropshire musician John Moore [Ashman]; Joshua Gibbons 1823-26 MS [Sumner]. Ashman (The Ironbridge Hornpipe), 1991; No. 35a, pg. 11. Raven (English Country Dance Tunes), 1984; pg. 138. Sumner (Lincolnshire Collections, vol. 1: The Joshua Gibbons Manuscript), 1997; pg. 1.

